X:1604
T:D Doubling Scale
C: Kevin Fraser
B: https://bagpipes.ksfraser.com
O: Kevin Fraser
Z:Kevin Fraser
Q:1/4=78
K:HP
M:4/4
L:1/4
%%MIDI gracedivider 4
%%MIDI gchord
%%MIDI beatstring 
[| G {gde}d A {gde}d | B {gde}d c {gde}d | d {gde}d e {gde}d | f {gde}d g {ade}d | 
w: em hada en hada | o hada o hada   | a hada e hada | ve hada di hada |
w: |||- thumb gracenote ^|
   a {de}d a {de}d | g {ade}d f {gde}d | e {gde}d d {gde}d | c {gde}d B {gde}d | A {gde}d G {gde}d |]
w: I ada  I ada  |  di hada ve hada | e hada a hada | o hada o hada | en hada em hada
w: ^ Half Doublings ^|
W:
W: Note the High A gracenote from High G for this doubling!
W: Note the Half Doubling from High A


